dist/flags/l/703.svg

<svg width="32" height="24" viewBox="0 0 32 24" fill="none" xmlns="http://www.w3.org/2000/svg">
<mask id="mask0" mask-type="alpha" maskUnits="userSpaceOnUse" x="0" y="0" width="32" height="24">
<rect width="32" height="24" fill="white"/>
</mask>
<g mask="url(#mask0)">
<path fill-rule="evenodd" clip-rule="evenodd" d="M0 0V24H32V0H0Z" fill="#3D58DB"/>
<mask id="mask1" mask-type="alpha" maskUnits="userSpaceOnUse" x="0" y="0" width="32" height="24">
<path fill-rule="evenodd" clip-rule="evenodd" d="M0 0V24H32V0H0Z" fill="white"/>
</mask>
<g mask="url(#mask1)">
<path fill-rule="evenodd" clip-rule="evenodd" d="M0 0V8H32V0H0Z" fill="#F7FCFF"/>
<path fill-rule="evenodd" clip-rule="evenodd" d="M0 16V24H32V16H0Z" fill="#E31D1C"/>
<path d="M15.6039 6.03027L16.1011 5.97737L16.0535 5.53027H15.6039H6.34483H5.87741L5.84596 5.99663L6.34483 6.03027L5.84595 5.99672L5.84594 5.99694L5.84589 5.99774L5.84568 6.00081L5.84489 6.01273L5.84183 6.05899L5.8305 6.23518C5.82084 6.38756 5.8073 6.60681 5.79171 6.87476C5.76054 7.41051 5.72116 8.14173 5.68834 8.92289C5.62366 10.4625 5.58077 12.2649 5.69278 13.1066C5.91136 14.7491 6.91149 18.4362 10.7798 20.1072L10.9816 20.1943L11.1822 20.1046C14.8564 18.4617 16.0853 15.1531 16.3687 13.1093C16.5118 12.0779 16.4391 10.2731 16.3387 8.77326C16.2878 8.01324 16.2284 7.31489 16.1818 6.8067C16.1585 6.5525 16.1384 6.34563 16.1241 6.20211C16.1169 6.13034 16.1112 6.07439 16.1073 6.03627L16.1027 5.99271L16.1015 5.98142L16.1012 5.97848L16.1011 5.9777L16.1011 5.97748C16.1011 5.97742 16.1011 5.97737 15.6039 6.03027Z" fill="#E31D1C" stroke="white"/>
<mask id="mask2" mask-type="alpha" maskUnits="userSpaceOnUse" x="5" y="5" width="12" height="16">
<path d="M15.6039 6.03027L16.1011 5.97737L16.0535 5.53027H15.6039H6.34483H5.87741L5.84596 5.99663L6.34483 6.03027L5.84595 5.99672L5.84594 5.99694L5.84589 5.99774L5.84568 6.00081L5.84489 6.01273L5.84183 6.05899L5.8305 6.23518C5.82084 6.38756 5.8073 6.60681 5.79171 6.87476C5.76054 7.41051 5.72116 8.14173 5.68834 8.92289C5.62366 10.4625 5.58077 12.2649 5.69278 13.1066C5.91136 14.7491 6.91149 18.4362 10.7798 20.1072L10.9816 20.1943L11.1822 20.1046C14.8564 18.4617 16.0853 15.1531 16.3687 13.1093C16.5118 12.0779 16.4391 10.2731 16.3387 8.77326C16.2878 8.01324 16.2284 7.31489 16.1818 6.8067C16.1585 6.5525 16.1384 6.34563 16.1241 6.20211C16.1169 6.13034 16.1112 6.07439 16.1073 6.03627L16.1027 5.99271L16.1015 5.98142L16.1012 5.97848L16.1011 5.9777L16.1011 5.97748C16.1011 5.97742 16.1011 5.97737 15.6039 6.03027Z" fill="white" stroke="white"/>
</mask>
<g mask="url(#mask2)">
<path fill-rule="evenodd" clip-rule="evenodd" d="M10.2571 6.5896C10.2571 6.5896 10.4636 6.90422 10.556 7.3853C10.6485 7.86639 10.6644 8.7093 10.6644 8.7093L8.70555 8.46812V9.95341L10.7082 9.69836L10.6756 11.1081C10.6756 11.1081 10.0765 11.1702 9.58514 11.1081C9.09376 11.046 8.12573 10.7858 8.12573 10.7858V12.4862C8.12573 12.4862 9.10923 12.1715 9.58514 12.0993C10.061 12.0271 10.6756 12.0993 10.6756 12.0993V14.1877H11.4887V12.0993C11.4887 12.0993 12.3774 12.0221 12.9076 12.1057C13.4378 12.1894 13.9407 12.4862 13.9407 12.4862V10.7858C13.9407 10.7858 13.4312 11.0396 12.9506 11.1028C12.4701 11.166 11.4887 11.1081 11.4887 11.1081L11.5212 9.69836C11.5212 9.69836 12.1865 9.62949 12.5597 9.68016C12.9329 9.73082 13.4 9.95341 13.4 9.95341V8.46812C13.4 8.46812 12.9447 8.71586 12.5865 8.7608C12.2283 8.80574 11.4775 8.7093 11.4775 8.7093C11.4775 8.7093 11.4908 7.83944 11.5678 7.41588C11.6448 6.99232 11.8629 6.5896 11.8629 6.5896H10.2571Z" fill="#F7FCFF"/>
<path fill-rule="evenodd" clip-rule="evenodd" d="M6.89734 16.2452C6.89734 16.2452 7.33683 15.302 8.05197 15.1226C8.7671 14.9433 9.51698 15.6839 9.51698 15.6839C9.51698 15.6839 9.97488 14.1875 11.091 14.1875C12.2071 14.1875 12.5988 15.6839 12.5988 15.6839C12.5988 15.6839 13.075 15.1226 13.7598 15.1226C14.4445 15.1226 15.079 16.2452 15.079 16.2452C15.079 16.2452 13.0336 19.9587 10.9882 19.9587C8.94275 19.9587 6.89734 16.2452 6.89734 16.2452Z" fill="#2E42A5"/>
</g>
</g>
</g>
</svg>

<svg width="32" height="24" fill="none" xmlns="http://www.w3.org/2000/svg">
  <mask id="a" maskUnits="userSpaceOnUse" x="0" y="0" width="32" height="24">
    <path fill="#fff" d="M0 0h32v24H0z"/>
  </mask>
  <g mask="url(#a)">
    <path fill-rule="evenodd" clip-rule="evenodd" d="M0 0v24h32V0H0z" fill="#3D58DB"/>
    <mask id="b" maskUnits="userSpaceOnUse" x="0" y="0" width="32" height="24">
      <path fill-rule="evenodd" clip-rule="evenodd" d="M0 0v24h32V0H0z" fill="#fff"/>
    </mask>
    <g mask="url(#b)">
      <path fill-rule="evenodd" clip-rule="evenodd" d="M0 0v8h32V0H0z" fill="#F7FCFF"/>
      <path fill-rule="evenodd" clip-rule="evenodd" d="M0 16v8h32v-8H0z" fill="#E31D1C"/>
      <path d="M15.604 6.03l.497-.053-.047-.447H5.877l-.031.467.499.033-.499-.033h0v.004l-.001.012-.003.046-.011.176a124.712 124.712 0 00-.143 2.688c-.064 1.54-.107 3.342.005 4.184.218 1.642 1.218 5.33 5.087 7l.202.087.2-.09c3.674-1.642 4.903-4.95 5.187-6.995.143-1.031.07-2.836-.03-4.336a81.662 81.662 0 00-.232-2.737l-.004-.043-.002-.012v-.003h0l-.497.052z" fill="#E31D1C" stroke="#fff"/>
      <mask id="c" maskUnits="userSpaceOnUse" x="5" y="5" width="12" height="16">
        <path d="M15.604 6.03l.497-.053-.047-.447H5.877l-.031.467.499.033-.499-.033h0v.004l-.001.012-.003.046-.011.176a124.712 124.712 0 00-.143 2.688c-.064 1.54-.107 3.342.005 4.184.218 1.642 1.218 5.33 5.087 7l.202.087.2-.09c3.674-1.642 4.903-4.95 5.187-6.995.143-1.031.07-2.836-.03-4.336a81.662 81.662 0 00-.232-2.737l-.004-.043-.002-.012v-.003h0l-.497.052z" fill="#fff" stroke="#fff"/>
      </mask>
      <g mask="url(#c)" fill-rule="evenodd" clip-rule="evenodd">
        <path d="M10.257 6.59s.207.314.299.795c.093.482.108 1.324.108 1.324l-1.958-.24v1.485l2.002-.256-.032 1.41s-.6.062-1.09 0c-.492-.062-1.46-.322-1.46-.322v1.7s.983-.314 1.46-.386c.475-.073 1.09 0 1.09 0v2.088h.813V12.1s.888-.078 1.419.006c.53.084 1.033.38 1.033.38v-1.7s-.51.254-.99.317-1.462.005-1.462.005l.032-1.41s.665-.068 1.039-.018c.373.05.84.274.84.274V8.468s-.455.248-.814.293c-.358.045-1.109-.052-1.109-.052s.014-.87.09-1.293c.078-.424.296-.826.296-.826h-1.606z" fill="#F7FCFF"/>
        <path d="M6.897 16.245s.44-.943 1.155-1.122c.715-.18 1.465.56 1.465.56s.458-1.495 1.574-1.495 1.508 1.496 1.508 1.496.476-.561 1.16-.561c.685 0 1.32 1.122 1.32 1.122s-2.045 3.714-4.09 3.714c-2.046 0-4.092-3.714-4.092-3.714z" fill="#2E42A5"/>
      </g>
    </g>
  </g>
</svg>
